X:6
T:Gavotten Ar Menez
R:gavotte
D:Kornog: Ar Seizh Avel
O:Bretagne
Z:id:hn-gavotte-6
M:4/4
L:1/8
K:G
GA (3BAG AB AB | cB AF G2 GD |
GA (3BAG AB A2 | cB AF G2 GD ||
|: GA (3BAG AB A2 | (3Bcd ed B2 B2 |
G>A BG AB AB | cB AF G2 GD :|

